public/assets/instagram_green.svg

<?xml version="1.0" encoding="UTF-8"?>
<svg width="65px" height="65px" viewBox="0 0 65 65" version="1.1" xmlns="http://www.w3.org/2000/svg" xmlns:xlink="http://www.w3.org/1999/xlink">
    <!-- Generator: Sketch 52.6 (67491) - http://www.bohemiancoding.com/sketch -->
    <title>Icon</title>
    <desc>Created with Sketch.</desc>
    <g id="PROD" stroke="none" stroke-width="1" fill="none" fill-rule="evenodd">
        <g id="1_Desktop-/-HP-_2" transform="translate(-1027.000000, -5251.000000)" fill="#5FEB98">
            <g id="RS" transform="translate(0.000000, 4743.000000)">
                <g id="Group-4" transform="translate(360.000000, 504.000000)">
                    <g id="Icon" transform="translate(667.000000, 4.000000)">
                        <path d="M32.5,0 C23.673483,0 22.5667173,0.0374125964 19.1003827,0.195577573 C15.6410144,0.353355523 13.2786072,0.902804655 11.2112428,1.70614341 C9.07408473,2.53670305 7.26164155,3.64798617 5.45487474,5.45475656 C3.64810794,7.26165596 2.53682702,9.07410274 1.70626903,11.2112651 C0.902802863,13.2785045 0.35348383,15.6410455 0.195577185,19.1002916 C0.0374125222,22.5667621 0,23.6735299 0,32.5000645 C0,41.3264701 0.0374125222,42.4332379 0.195577185,45.8997084 C0.35348383,49.3589545 0.902802863,51.7214955 1.70626903,53.7887349 C2.53682702,55.9258973 3.64810794,57.738344 5.45487474,59.5452434 C7.26164155,61.3520138 9.07408473,62.463297 11.2112428,63.2938566 C13.2786072,64.0971953 15.6410144,64.6466445 19.1003827,64.8044224 C22.5667173,64.9625874 23.673483,65 32.5,65 C41.326517,65 42.4332827,64.9625874 45.8996173,64.8044224 C49.3589856,64.6466445 51.7213928,64.0971953 53.7887572,63.2938566 C55.9259153,62.463297 57.7383585,61.3520138 59.5451253,59.5452434 C61.3518921,57.738344 62.463173,55.9258973 63.293731,53.7887349 C64.0971971,51.7214955 64.6465162,49.3589545 64.8044228,45.8997084 C64.9625875,42.4332379 65,41.3264701 65,32.5000645 C65,23.6735299 64.9625875,22.5667621 64.8044228,19.1002916 C64.6465162,15.6410455 64.0971971,13.2785045 63.293731,11.2112651 C62.463173,9.07410274 61.3518921,7.26165596 59.5451253,5.45475656 C57.7383585,3.64798617 55.9259153,2.53670305 53.7887572,1.70614341 C51.7213928,0.902804655 49.3589856,0.353355523 45.8996173,0.195577573 C42.4332827,0.0374125964 41.326517,0 32.5,0 M32.5,5.8558454 C41.177899,5.8558454 42.2057113,5.8890007 45.6326983,6.04535955 C48.80141,6.18984958 50.522386,6.71930232 51.6675962,7.16438321 C53.1844805,7.75395412 54.2671214,8.458214 55.4044621,9.59555693 C56.5416738,10.7327709 57.2460613,11.815414 57.835631,13.3324303 C58.280582,14.4776427 58.8100337,16.1984932 58.9546525,19.3672111 C59.111011,22.7942049 59.1440372,23.8221483 59.1440372,32.5000645 C59.1440372,41.1778517 59.111011,42.2057951 58.9546525,45.6327889 C58.8100337,48.8015068 58.280582,50.5223573 57.835631,51.6675697 C57.2460613,53.184586 56.5416738,54.2672291 55.4044621,55.4044431 C54.2671214,56.541786 53.1844805,57.2460459 51.6675962,57.8356168 C50.522386,58.2806977 48.80141,58.8101504 45.6326983,58.9546405 C42.2062273,59.1109993 41.1784151,59.1441546 32.5,59.1441546 C23.8215849,59.1441546 22.7937727,59.1109993 19.3673017,58.9546405 C16.19859,58.8101504 14.477614,58.2806977 13.3324038,57.8356168 C11.8155195,57.2460459 10.7328786,56.541786 9.59553789,55.4044431 C8.45832622,54.2672291 7.75393873,53.184586 7.16436899,51.6675697 C6.71941799,50.5223573 6.1899663,48.8015068 6.04534755,45.6327889 C5.88898901,42.2057951 5.85596278,41.1778517 5.85596278,32.5000645 C5.85596278,23.8221483 5.88898901,22.7942049 6.04534755,19.3672111 C6.1899663,16.1984932 6.71941799,14.4776427 7.16436899,13.3324303 C7.75393873,11.815414 8.45832622,10.7327709 9.59553789,9.59555693 C10.7328786,8.458214 11.8155195,7.75395412 13.3324038,7.16438321 C14.477614,6.71930232 16.19859,6.18984958 19.3671726,6.04535955 C22.7942887,5.8890007 23.822101,5.8558454 32.5,5.8558454" id="Item811"></path>
                        <path d="M31.6216948,43.9189189 C24.8301266,43.9189189 19.3243243,38.4132631 19.3243243,31.6216948 C19.3243243,24.8299801 24.8301266,19.3243243 31.6216948,19.3243243 C38.4132631,19.3243243 43.9189189,24.8299801 43.9189189,31.6216948 C43.9189189,38.4132631 38.4132631,43.9189189 31.6216948,43.9189189 M31.6216216,14.0540541 C21.919365,14.0540541 14.0540541,21.9192596 14.0540541,31.6216895 C14.0540541,41.3239837 21.919365,49.1891892 31.6216216,49.1891892 C41.3238783,49.1891892 49.1891892,41.3239837 49.1891892,31.6216895 C49.1891892,21.9192596 41.3238783,14.0540541 31.6216216,14.0540541" id="Item812"></path>
                        <path d="M54.4594595,14.0540541 C54.4594595,16.9648193 52.0998191,19.3243243 49.1892764,19.3243243 C46.2785593,19.3243243 43.9189189,16.9648193 43.9189189,14.0540541 C43.9189189,11.1432888 46.2785593,8.78378378 49.1892764,8.78378378 C52.0998191,8.78378378 54.4594595,11.1432888 54.4594595,14.0540541" id="Item815"></path>
                    </g>
                </g>
            </g>
        </g>
    </g>
</svg>

<?xml version="1.0" encoding="UTF-8"?>
<svg version="1.1" viewBox="0 0 65 65" xmlns="http://www.w3.org/2000/svg">
<title>Icon</title>
<desc>Created with Sketch.</desc>
<g fill="none" fill-rule="evenodd">
<g transform="translate(-1027 -5251)" fill="#5FEB98">
<g transform="translate(0 4743)">
<g transform="translate(360 504)">
<g transform="translate(667 4)">
<path d="m32.5 0c-8.8265 0-9.9333 0.037413-13.4 0.19558-3.4594 0.15778-5.8218 0.70723-7.8891 1.5106-2.1372 0.83056-3.9496 1.9418-5.7564 3.7486-1.8068 1.8069-2.918 3.6193-3.7486 5.7565-0.80347 2.0672-1.3528 4.4298-1.5107 7.889-0.15816 3.4665-0.19558 4.5732-0.19558 13.4 0 8.8264 0.037413 9.9332 0.19558 13.4 0.15791 3.4592 0.70723 5.8218 1.5107 7.889 0.83056 2.1372 1.9418 3.9496 3.7486 5.7565 1.8068 1.8068 3.6192 2.9181 5.7564 3.7486 2.0674 0.80334 4.4298 1.3528 7.8891 1.5106 3.4663 0.15816 4.5731 0.19558 13.4 0.19558s9.9333-0.037413 13.4-0.19558c3.4594-0.15778 5.8218-0.70723 7.8891-1.5106 2.1372-0.83056 3.9496-1.9418 5.7564-3.7486 1.8068-1.8069 2.918-3.6193 3.7486-5.7565 0.80347-2.0672 1.3528-4.4298 1.5107-7.889 0.15816-3.4665 0.19558-4.5732 0.19558-13.4 0-8.8265-0.037412-9.9333-0.19558-13.4-0.15791-3.4592-0.70723-5.8218-1.5107-7.889-0.83056-2.1372-1.9418-3.9496-3.7486-5.7565-1.8068-1.8068-3.6192-2.9181-5.7564-3.7486-2.0674-0.80334-4.4298-1.3528-7.8891-1.5106-3.4663-0.15816-4.5731-0.19558-13.4-0.19558m0 5.8558c8.6779 0 9.7057 0.033155 13.133 0.18951 3.1687 0.14449 4.8897 0.67394 6.0349 1.119 1.5169 0.58957 2.5995 1.2938 3.7369 2.4312 1.1372 1.1372 1.8416 2.2199 2.4312 3.7369 0.44495 1.1452 0.9744 2.8661 1.119 6.0348 0.15636 3.427 0.18938 4.4549 0.18938 13.133 0 8.6778-0.033026 9.7057-0.18938 13.133-0.14462 3.1687-0.67407 4.8896-1.119 6.0348-0.58957 1.517-1.294 2.5997-2.4312 3.7369-1.1373 1.1373-2.22 1.8416-3.7369 2.4312-1.1452 0.44508-2.8662 0.97453-6.0349 1.119-3.4265 0.15636-4.4543 0.18951-13.133 0.18951s-9.7062-0.033155-13.133-0.18951c-3.1687-0.14449-4.8897-0.67394-6.0349-1.119-1.5169-0.58957-2.5995-1.2938-3.7369-2.4312-1.1372-1.1372-1.8416-2.2199-2.4312-3.7369-0.44495-1.1452-0.9744-2.8661-1.119-6.0348-0.15636-3.427-0.18938-4.4549-0.18938-13.133 0-8.6779 0.033026-9.7059 0.18938-13.133 0.14462-3.1687 0.67407-4.8896 1.119-6.0348 0.58957-1.517 1.294-2.5997 2.4312-3.7369 1.1373-1.1373 2.22-1.8416 3.7369-2.4312 1.1452-0.44508 2.8662-0.97453 6.0348-1.119 3.4271-0.15636 4.4549-0.18951 13.133-0.18951"/>
<path d="m31.622 43.919c-6.7916 0-12.297-5.5057-12.297-12.297 0-6.7917 5.5058-12.297 12.297-12.297 6.7916 0 12.297 5.5057 12.297 12.297 0 6.7916-5.5057 12.297-12.297 12.297m-7.32e-5 -29.865c-9.7023 0-17.568 7.8652-17.568 17.568 0 9.7023 7.8653 17.567 17.568 17.567 9.7023 0 17.568-7.8652 17.568-17.567 0-9.7024-7.8653-17.568-17.568-17.568"/>
<path d="m54.459 14.054c0 2.9108-2.3596 5.2703-5.2702 5.2703-2.9107 0-5.2704-2.3595-5.2704-5.2703 0-2.9108 2.3596-5.2703 5.2704-5.2703 2.9105 0 5.2702 2.3595 5.2702 5.2703"/>
</g>
</g>
</g>
</g>
</g>
</svg>
